rospo-icon-theme-classic-common/48x48/apps/cin.svg

<svg height="48" width="48" xmlns="http://www.w3.org/2000/svg"><rect height="40" opacity=".2" rx="2" transform="scale(1 -1)" width="40" x="4" y="-45"/><rect fill="#fecd38" height="40" rx="2" transform="scale(1 -1)" width="40" x="4" y="-44"/><path d="m6 7v4h4v-4zm8 0v4h4v-4zm8 0v4h4v-4zm8 0v4h4v-4zm8 0v4h4v-4zm-30 8v20h14v-20zm18 0v20h14v-20zm-20 24v4h4v-4zm8 0v4h4v-4zm8 0v4h4v-4zm8 0v4h4v-4zm8 0v4h4v-4z" opacity=".2"/><path d="m6 6v4h4v-4zm8 0v4h4v-4zm8 0v4h4v-4zm8 0v4h4v-4zm8 0v4h4v-4zm-30 8v20h14v-20zm18 0v20h14v-20zm-20 24v4h4v-4zm8 0v4h4v-4zm8 0v4h4v-4zm8 0v4h4v-4zm8 0v4h4v-4z" fill="#336894"/><path d="m6 4c-1.108 0-2 .892-2 2v1c0-1.108.892-2 2-2h36c1.108 0 2 .892 2 2v-1c0-1.108-.892-2-2-2z" fill="#fff" opacity=".2"/></svg>

<svg xmlns="http://www.w3.org/2000/svg" width="48" height="48" version="1">
 <rect width="40" height="40" x="4" y="-45" rx="2" ry="2" transform="scale(1,-1)" style="opacity:0.2"/>
 <rect style="fill:#fecd38" width="40" height="40" x="4" y="-44" rx="2" ry="2" transform="scale(1,-1)"/>
 <path d="m 6,7 0,4 4,0 0,-4 -4,0 z m 8,0 0,4 4,0 0,-4 -4,0 z m 8,0 0,4 4,0 0,-4 -4,0 z m 8,0 0,4 4,0 0,-4 -4,0 z m 8,0 0,4 4,0 0,-4 -4,0 z M 8,15 8,35 22,35 22,15 8,15 Z m 18,0 0,20 14,0 0,-20 -14,0 z m -20,24 0,4 4,0 0,-4 -4,0 z m 8,0 0,4 4,0 0,-4 -4,0 z m 8,0 0,4 4,0 0,-4 -4,0 z m 8,0 0,4 4,0 0,-4 -4,0 z m 8,0 0,4 4,0 0,-4 -4,0 z" style="opacity:0.2"/>
 <path style="fill:#336894" d="M 6 6 L 6 10 L 10 10 L 10 6 L 6 6 z M 14 6 L 14 10 L 18 10 L 18 6 L 14 6 z M 22 6 L 22 10 L 26 10 L 26 6 L 22 6 z M 30 6 L 30 10 L 34 10 L 34 6 L 30 6 z M 38 6 L 38 10 L 42 10 L 42 6 L 38 6 z M 8 14 L 8 34 L 22 34 L 22 14 L 8 14 z M 26 14 L 26 34 L 40 34 L 40 14 L 26 14 z M 6 38 L 6 42 L 10 42 L 10 38 L 6 38 z M 14 38 L 14 42 L 18 42 L 18 38 L 14 38 z M 22 38 L 22 42 L 26 42 L 26 38 L 22 38 z M 30 38 L 30 42 L 34 42 L 34 38 L 30 38 z M 38 38 L 38 42 L 42 42 L 42 38 L 38 38 z"/>
 <path style="fill:#ffffff;opacity:0.2" d="M 6 4 C 4.892 4 4 4.892 4 6 L 4 7 C 4 5.892 4.892 5 6 5 L 42 5 C 43.108 5 44 5.892 44 7 L 44 6 C 44 4.892 43.108 4 42 4 L 6 4 z"/>
</svg>
